X: 29897
T: O'Neill's Maggot
R: jig
M: 6/8
K: Dmajor
|:d2 e f2 e|d2 e d2 B|A2 F d2 F|EEE E3|
d2 e f2 e|d2 e d2 B|A2 F d2 F|DED D3:|
|:DDD A2 F|DDD A2 F|EEE B2 G|EEE B2 G|
DDD A2 F|DDD A2 F|G2 E A2 F|DED D3:|
|:a3 a2 f|a3 a2 f|g2 e b2 e|g2 e b2 e|
a3 a2 f|a3 f3|e2 d e2 f|ddd d3:|

